icons/postman-filled.svg

<svg width="256" height="256" viewBox="0 0 256 256" fill="none" xmlns="http://www.w3.org/2000/svg">
<rect width="256" height="256" rx="60" fill="#FF6C37"/>
<path d="M169.061 88.6123L118.521 139.153L104.268 124.901C153.971 75.1986 158.882 79.5101 169.061 88.6123Z" fill="#EEEEEE"/>
<path d="M118.521 140.35C118.161 140.35 117.922 140.231 117.682 139.991L103.31 125.739C102.831 125.26 102.831 124.542 103.31 124.063C153.851 73.5211 159.12 78.3118 169.78 87.8932C170.02 88.1328 170.139 88.3724 170.139 88.7317C170.139 89.0911 170.02 89.3306 169.78 89.5694L119.239 139.991C119.12 140.231 118.76 140.35 118.521 140.35ZM105.945 124.901L118.521 137.476L167.265 88.7317C158.403 80.8266 152.414 78.4316 105.945 124.901Z" fill="#FF6C37"/>
<path d="M133.012 153.645L119.239 139.872L169.78 89.3315C183.314 102.984 163.073 125.141 133.012 153.645Z" fill="#EEEEEE"/>
<path d="M133.012 154.843C132.652 154.843 132.414 154.723 132.174 154.483L118.401 140.71C118.161 140.471 118.161 140.231 118.161 139.872C118.161 139.512 118.281 139.273 118.521 139.033L169.061 88.4927C169.54 88.0135 170.259 88.0135 170.738 88.4927C173.852 91.3668 175.529 95.4387 175.409 99.6305C175.17 112.924 160.079 129.811 133.97 154.483C133.611 154.723 133.251 154.843 133.012 154.843ZM120.916 139.872C128.58 147.656 131.815 150.771 133.012 151.968C153.133 132.806 172.654 113.164 172.774 99.6305C172.894 96.5168 171.697 93.4031 169.66 91.0074L120.916 139.872Z" fill="#FF6C37"/>
<path d="M104.508 125.26L114.688 135.44C114.927 135.68 114.927 135.919 114.688 136.159C114.568 136.279 114.568 136.279 114.449 136.279L93.3693 140.83C92.292 140.95 91.3337 140.231 91.0942 139.153C90.9744 138.554 91.214 137.956 91.5733 137.596L103.789 125.38C104.029 125.14 104.388 125.02 104.508 125.26Z" fill="#EEEEEE"/>
<path d="M93.01 142.028C91.214 142.028 89.8963 140.59 89.8963 138.793C89.8963 137.956 90.2557 137.117 90.8546 136.518L103.07 124.302C103.789 123.703 104.748 123.703 105.466 124.302L115.646 134.482C116.364 135.081 116.364 136.159 115.646 136.877C115.406 137.117 115.167 137.237 114.807 137.357L93.7287 141.908C93.4891 141.908 93.2495 142.028 93.01 142.028ZM104.149 126.577L92.4118 138.314C92.1723 138.554 92.0525 138.913 92.292 139.272C92.4118 139.632 92.7704 139.752 93.1298 139.632L112.891 135.32L104.149 126.577Z" fill="#FF6C37"/>
<path d="M195.769 60.5877C188.104 53.1625 175.768 53.4021 168.342 61.1867C160.917 68.9712 161.157 81.1871 168.941 88.6131C175.289 94.7207 184.871 95.7988 192.416 91.2476L178.762 77.5943L195.769 60.5877Z" fill="#EEEEEE"/>
<path d="M182.355 95.1996C170.978 95.1996 161.756 85.9776 161.756 74.6002C161.756 63.222 170.978 54 182.355 54C187.625 54 192.775 56.0364 196.607 59.749C196.847 59.9886 196.967 60.2281 196.967 60.5875C196.967 60.9469 196.847 61.1864 196.607 61.426L180.439 77.5941L193.134 90.2891C193.614 90.7683 193.614 91.487 193.134 91.9661C193.015 92.0859 193.015 92.0859 192.895 92.2057C189.781 94.1215 186.068 95.1996 182.355 95.1996ZM182.355 56.5155C172.295 56.5155 164.151 64.6595 164.271 74.72C164.271 84.7805 172.414 92.9244 182.475 92.8047C185.23 92.8047 187.984 92.2057 190.499 90.888L177.924 78.4326C177.684 78.193 177.565 77.9534 177.565 77.5941C177.565 77.2347 177.684 76.9951 177.924 76.7556L193.973 60.7073C190.739 57.953 186.667 56.5155 182.355 56.5155Z" fill="#FF6C37"/>
<path d="M196.128 60.9471L195.889 60.7075L178.762 77.5943L192.296 91.1279C193.614 90.2894 194.93 89.3319 196.009 88.2538C203.673 80.708 203.673 68.4921 196.128 60.9471Z" fill="#EEEEEE"/>
<path d="M192.416 92.4448C192.056 92.4448 191.817 92.325 191.577 92.0855L177.924 78.4321C177.684 78.1925 177.565 77.953 177.565 77.5936C177.565 77.2342 177.684 76.9947 177.924 76.7551L194.93 59.7485C195.41 59.2694 196.128 59.2694 196.607 59.7485L196.967 59.9881C204.991 68.0122 204.991 80.9469 197.087 89.0916C195.889 90.2887 194.571 91.3667 193.134 92.2053C192.775 92.325 192.536 92.4448 192.416 92.4448ZM180.439 77.5936L192.536 89.6897C193.494 89.0916 194.452 88.2531 195.17 87.5344C201.997 80.7073 202.356 69.5695 195.769 62.3838L180.439 77.5936Z" fill="#FF6C37"/>
<path d="M171.098 90.7674C168.223 87.8933 163.552 87.8933 160.678 90.7674L115.526 135.919L123.072 143.464L170.858 101.547C173.972 98.9113 174.211 94.2404 171.577 91.1267C171.337 91.007 171.217 90.8872 171.098 90.7674Z" fill="#EEEEEE"/>
<path d="M122.952 144.662C122.593 144.662 122.353 144.542 122.113 144.303L114.568 136.758C114.089 136.279 114.089 135.56 114.568 135.081L159.719 89.929C163.073 86.5758 168.462 86.5758 171.816 89.929C175.17 93.283 175.17 98.6719 171.816 102.026C171.697 102.146 171.577 102.265 171.457 102.385L123.67 144.303C123.551 144.542 123.311 144.662 122.952 144.662ZM117.203 135.919L123.072 141.788L170.02 100.588C172.654 98.4323 172.894 94.4801 170.738 91.8456C168.582 89.2111 164.63 88.9715 161.995 91.1269C161.876 91.2467 161.756 91.3664 161.516 91.4862L117.203 135.919Z" fill="#FF6C37"/>
<path d="M80.9139 187.3C80.4347 187.539 80.1951 188.018 80.3149 188.497L82.3513 197.121C82.8305 198.318 82.1117 199.756 80.7941 200.115C79.8358 200.474 78.7585 200.115 78.1596 199.397L64.9854 186.342L107.981 143.346L122.832 143.585L132.892 153.646C130.497 155.682 116.005 169.694 80.9139 187.3Z" fill="#EEEEEE"/>
<path d="M79.9556 201.311C78.9981 201.311 78.0398 200.952 77.4408 200.234L64.3864 187.179C64.1469 186.94 64.0271 186.7 64.0271 186.341C64.0271 185.982 64.1469 185.742 64.3864 185.502L107.382 142.507C107.622 142.267 107.981 142.147 108.221 142.147L123.072 142.387C123.431 142.387 123.67 142.507 123.909 142.746L133.97 152.806C134.21 153.046 134.329 153.405 134.329 153.764C134.329 154.124 134.21 154.363 133.85 154.603L133.012 155.322C120.317 166.459 103.07 177.598 81.6326 188.257L83.669 196.76C84.0275 198.317 83.3096 199.994 81.8722 200.832C81.1534 201.191 80.5545 201.311 79.9556 201.311ZM66.7814 186.341L79.1178 198.557C79.4764 199.156 80.1951 199.395 80.7941 199.036C81.393 198.677 81.6326 197.958 81.2732 197.359L79.2376 188.736C78.9981 187.658 79.4764 186.7 80.4347 186.221C101.633 175.562 118.76 164.544 131.335 153.645L122.473 144.782L108.7 144.542L66.7814 186.341Z" fill="#FF6C37"/>
<path d="M54.8051 196.641L65.1052 186.341L80.4347 201.671L56.0029 199.995C54.9249 199.875 54.2061 198.917 54.3259 197.838C54.3259 197.359 54.4457 196.88 54.8051 196.641Z" fill="#EEEEEE"/>
<path d="M80.4347 202.749L55.8831 201.072C54.0863 200.952 52.8884 199.396 53.0082 197.599C53.128 196.88 53.3676 196.162 53.9665 195.683L64.2666 185.383C64.7458 184.904 65.4645 184.904 65.9429 185.383L81.2732 200.713C81.6326 201.072 81.7524 201.551 81.5128 202.031C81.2732 202.51 80.9139 202.749 80.4347 202.749ZM65.1051 188.018L55.6435 197.479C55.2842 197.719 55.2842 198.318 55.6435 198.557C55.7633 198.677 55.8831 198.797 56.1227 198.797L77.321 200.234L65.1051 188.018Z" fill="#FF6C37"/>
<path d="M103.789 148.855C103.07 148.855 102.591 148.256 102.591 147.657C102.591 147.298 102.711 147.059 102.951 146.819L114.568 135.202C115.047 134.722 115.766 134.722 116.245 135.202L123.79 142.747C124.149 143.106 124.269 143.465 124.149 143.945C124.029 144.304 123.67 144.663 123.192 144.783L104.029 148.855C103.909 148.855 103.789 148.855 103.789 148.855ZM115.406 137.717L107.502 145.622L120.436 142.866L115.406 137.717Z" fill="#FF6C37"/>
<path d="M122.832 143.584L109.658 146.459C108.7 146.699 107.741 146.1 107.502 145.142C107.382 144.543 107.502 143.944 107.981 143.465L115.286 136.159L122.832 143.584Z" fill="#EEEEEE"/>
<path d="M109.418 147.657C107.741 147.657 106.424 146.34 106.424 144.663C106.424 143.825 106.783 143.106 107.262 142.508L114.568 135.202C115.047 134.722 115.766 134.722 116.245 135.202L123.79 142.747C124.149 143.106 124.269 143.465 124.149 143.945C124.029 144.304 123.67 144.663 123.192 144.783L110.017 147.657C109.778 147.657 109.538 147.657 109.418 147.657ZM115.406 137.717L108.939 144.184C108.7 144.424 108.7 144.663 108.819 144.903C108.939 145.142 109.179 145.262 109.538 145.262L120.556 142.866L115.406 137.717Z" fill="#FF6C37"/>
<path d="M196.248 72.4434C196.009 71.7254 195.17 71.3661 194.451 71.6057C193.733 71.8444 193.374 72.6829 193.614 73.4017C193.614 73.5215 193.733 73.6412 193.733 73.761C194.451 75.1985 194.213 76.9945 193.254 78.3121C192.775 78.9111 192.895 79.7496 193.374 80.2287C193.973 80.7071 194.811 80.5881 195.29 79.9892C197.087 77.7132 197.446 74.8391 196.248 72.4434Z" fill="#FF6C37"/>
</svg>

<svg xmlns="http://www.w3.org/2000/svg" width="256" height="256" fill="none"><rect width="256" height="256" fill="#FF6C37" rx="60"/><path fill="#EEE" d="m169.061 88.612-50.54 50.541-14.253-14.252c49.703-49.702 54.614-45.39 64.793-36.289"/><path fill="#FF6C37" d="M118.521 140.35c-.36 0-.599-.119-.839-.359l-14.372-14.252a1.157 1.157 0 0 1 0-1.676c50.541-50.542 55.81-45.751 66.47-36.17.24.24.359.48.359.839 0 .36-.119.599-.359.837l-50.541 50.422c-.119.24-.479.359-.718.359m-12.576-15.449 12.576 12.575 48.744-48.744c-8.862-7.905-14.851-10.3-61.32 36.169"/><path fill="#EEE" d="m133.012 153.645-13.773-13.773 50.541-50.54c13.534 13.652-6.707 35.809-36.768 64.313"/><path fill="#FF6C37" d="M133.012 154.843c-.36 0-.598-.12-.838-.36l-13.773-13.773c-.24-.239-.24-.479-.24-.838 0-.36.12-.599.36-.839l50.54-50.54a1.16 1.16 0 0 1 1.677 0 14.58 14.58 0 0 1 4.671 11.138c-.239 13.293-15.33 30.18-41.439 54.852-.359.24-.719.36-.958.36m-12.096-14.971c7.664 7.784 10.899 10.899 12.096 12.096 20.121-19.162 39.642-38.804 39.762-52.337.12-3.114-1.077-6.228-3.114-8.624z"/><path fill="#EEE" d="m104.508 125.26 10.18 10.18q.359.36 0 .719c-.12.12-.12.12-.239.12l-21.08 4.551c-1.077.12-2.035-.599-2.275-1.677-.12-.599.12-1.197.48-1.557l12.215-12.216c.24-.24.599-.36.719-.12"/><path fill="#FF6C37" d="M93.01 142.028c-1.796 0-3.114-1.438-3.114-3.235 0-.837.36-1.676.959-2.275l12.215-12.216c.719-.599 1.678-.599 2.396 0l10.18 10.18c.718.599.718 1.677 0 2.395-.24.24-.479.36-.839.48l-21.078 4.551c-.24 0-.48.12-.719.12m11.139-15.451-11.737 11.737c-.24.24-.36.599-.12.958.12.36.478.48.838.36l19.761-4.312z"/><path fill="#EEE" d="M195.769 60.588c-7.665-7.425-20.001-7.186-27.427.599-7.425 7.784-7.185 20 .599 27.426a19.35 19.35 0 0 0 23.475 2.635l-13.654-13.654z"/><path fill="#FF6C37" d="M182.355 95.2c-11.377 0-20.599-9.222-20.599-20.6S170.978 54 182.355 54c5.27 0 10.42 2.036 14.252 5.749.24.24.36.48.36.838 0 .36-.12.6-.36.839l-16.168 16.168 12.695 12.695c.48.48.48 1.198 0 1.677l-.239.24c-3.114 1.915-6.827 2.994-10.54 2.994m0-38.684c-10.06 0-18.204 8.143-18.084 18.204 0 10.06 8.143 18.204 18.204 18.085 2.755 0 5.509-.6 8.024-1.917l-12.575-12.455c-.24-.24-.359-.48-.359-.839 0-.36.119-.599.359-.838l16.049-16.049c-3.234-2.754-7.306-4.191-11.618-4.191"/><path fill="#EEE" d="m196.128 60.947-.239-.24-17.127 16.887 13.534 13.534c1.318-.839 2.634-1.796 3.713-2.874a19.195 19.195 0 0 0 .119-27.307"/><path fill="#FF6C37" d="M192.416 92.445c-.36 0-.599-.12-.839-.36l-13.653-13.653c-.24-.24-.359-.479-.359-.838 0-.36.119-.6.359-.839L194.93 59.75c.48-.48 1.198-.48 1.677 0l.36.24c8.024 8.023 8.024 20.958.12 29.103-1.198 1.197-2.516 2.275-3.953 3.113-.359.12-.598.24-.718.24m-11.977-14.851 12.097 12.096c.958-.598 1.916-1.437 2.634-2.156 6.827-6.827 7.186-17.964.599-25.15z"/><path fill="#EEE" d="M171.098 90.767a7.374 7.374 0 0 0-10.42 0l-45.152 45.152 7.546 7.545 47.786-41.917c3.114-2.636 3.353-7.307.719-10.42-.24-.12-.36-.24-.479-.36"/><path fill="#FF6C37" d="M122.952 144.662c-.359 0-.599-.12-.839-.359l-7.545-7.545a1.16 1.16 0 0 1 0-1.677l45.151-45.152a8.53 8.53 0 0 1 12.097 0 8.53 8.53 0 0 1 0 12.097l-.359.359-47.787 41.918q-.179.359-.718.359m-5.749-8.743 5.869 5.869 46.948-41.2c2.634-2.156 2.874-6.108.718-8.742s-6.108-2.874-8.743-.72c-.119.12-.239.24-.479.36z"/><path fill="#EEE" d="M80.914 187.3c-.48.239-.719.718-.6 1.197l2.037 8.624c.48 1.197-.24 2.635-1.557 2.994-.958.359-2.035 0-2.634-.718l-13.175-13.055 42.996-42.996 14.851.239 10.06 10.061c-2.395 2.036-16.887 16.048-51.978 33.654"/><path fill="#FF6C37" d="M79.956 201.311c-.958 0-1.916-.359-2.515-1.077l-13.055-13.055c-.24-.239-.359-.479-.359-.838s.12-.599.36-.839l42.995-42.995c.24-.24.599-.36.839-.36l14.851.24c.359 0 .598.12.837.359l10.061 10.06c.24.24.359.599.359.958 0 .36-.119.599-.479.839l-.838.719c-12.695 11.137-29.942 22.276-51.38 32.935l2.037 8.503c.359 1.557-.36 3.234-1.797 4.072-.719.359-1.317.479-1.916.479m-13.175-14.97 12.337 12.216c.358.599 1.077.838 1.676.479s.839-1.078.48-1.677l-2.036-8.623c-.24-1.078.238-2.036 1.197-2.515 21.198-10.659 38.325-21.677 50.9-32.576l-8.862-8.863-13.773-.24z"/><path fill="#EEE" d="m54.805 196.641 10.3-10.3 15.33 15.33-24.432-1.676c-1.078-.12-1.797-1.078-1.677-2.157 0-.479.12-.958.48-1.197"/><path fill="#FF6C37" d="m80.435 202.749-24.552-1.677c-1.797-.12-2.995-1.676-2.875-3.473.12-.719.36-1.437.959-1.916l10.3-10.3a1.157 1.157 0 0 1 1.676 0l15.33 15.33c.36.359.48.838.24 1.318q-.36.718-1.078.718m-15.33-14.731-9.461 9.461c-.36.24-.36.839 0 1.078.12.12.24.24.479.24l21.198 1.437zm38.684-39.163c-.719 0-1.198-.599-1.198-1.198 0-.359.12-.598.36-.838l11.617-11.617a1.157 1.157 0 0 1 1.677 0l7.545 7.545c.359.359.479.718.359 1.198-.12.359-.479.718-.957.838l-19.163 4.072zm11.617-11.138-7.904 7.905 12.934-2.756z"/><path fill="#EEE" d="m122.832 143.584-13.174 2.875c-.958.24-1.917-.359-2.156-1.317-.12-.599 0-1.198.479-1.677l7.305-7.306z"/><path fill="#FF6C37" d="M109.418 147.657a2.964 2.964 0 0 1-2.994-2.994c0-.838.359-1.557.838-2.155l7.306-7.306a1.157 1.157 0 0 1 1.677 0l7.545 7.545c.359.359.479.718.359 1.198-.12.359-.479.718-.957.838l-13.175 2.874zm5.988-9.94-6.467 6.467c-.239.24-.239.479-.12.719q.18.359.719.359l11.018-2.396zm80.842-65.274c-.239-.718-1.078-1.077-1.797-.837-.718.238-1.077 1.077-.837 1.796 0 .12.119.24.119.359.718 1.438.48 3.234-.479 4.551-.479.6-.359 1.438.12 1.917.599.478 1.437.36 1.916-.24 1.797-2.276 2.156-5.15.958-7.546"/></svg>
